packages/match-logos/mono/svg/ebay.svg

<svg fill="none" height="38" viewBox="0 0 95 38" width="95" xmlns="http://www.w3.org/2000/svg"><path d="m89.756 9.12-8.056 16.188-8.132-16.188h-5.624l1.444 2.736c-1.9-2.812-5.7-3.572-9.12-3.572-10.032 0-10.716 5.548-10.716 6.384h5.016s.228-3.192 5.32-3.192c3.344 0 5.852 1.52 5.852 4.408v1.064h-5.852c-6.536 0-10.488 1.596-11.552 4.788.152-.684.152-1.444.152-2.204 0-6.156-4.18-11.172-11.248-11.172-6.612 0-8.664 3.572-8.664 3.572v-11.932h-4.864v18.164c-.076-3.952-2.66-9.88-11.552-9.88-6.612 0-12.16 2.812-12.16 11.4 0 6.764 3.724 11.02 12.464 11.02 10.26 0 10.868-6.764 10.868-6.764h-4.94s-1.064 3.648-6.232 3.648c-4.18 0-7.22-2.812-7.22-6.84h18.924v5.624c0 1.52-.076 3.572-.076 3.572h4.712s.152-1.52.152-2.888c0 0 2.356 3.648 8.664 3.648 5.396 0 9.424-3.04 10.716-7.752 0 .228-.076.532-.076.76 0 4.56 3.8 7.068 8.968 7.068 6.992 0 9.272-3.876 9.272-3.876 0 1.52.152 3.04.152 3.04h4.484s-.152-1.9-.152-3.116v-10.26c0-1.368-.228-2.584-.608-3.572l8.968 16.948-4.256 8.056h5.32l14.668-28.88zm-84.74 8.512c0-3.876 3.572-6.156 7.068-6.156 4.028 0 6.764 2.432 6.764 6.156zm31.084 9.88c-4.864 0-7.448-3.8-7.448-7.98 0-3.876 2.356-7.904 7.448-7.904 4.56 0 7.448 3.344 7.448 7.904 0 4.864-3.344 7.98-7.448 7.98zm29.716-6.08c0 1.824-1.14 6.308-7.676 6.308-3.572 0-5.092-1.824-5.092-3.876 0-3.8 5.168-3.8 12.768-3.8z" fill="#1f304c"/></svg>

<svg width="95" height="38" viewBox="0 0 95 38" fill="none" xmlns="http://www.w3.org/2000/svg">
<path d="M89.756 9.12L81.7 25.308L73.568 9.12H67.944L69.388 11.856C67.488 9.044 63.688 8.284 60.268 8.284C50.236 8.284 49.552 13.832 49.552 14.668H54.568C54.568 14.668 54.796 11.476 59.888 11.476C63.232 11.476 65.74 12.996 65.74 15.884V16.948H59.888C53.352 16.948 49.4 18.544 48.336 21.736C48.488 21.052 48.488 20.292 48.488 19.532C48.488 13.376 44.308 8.36 37.24 8.36C30.628 8.36 28.576 11.932 28.576 11.932V0H23.712V18.164C23.636 14.212 21.052 8.284 12.16 8.284C5.548 8.284 0 11.096 0 19.684C0 26.448 3.724 30.704 12.464 30.704C22.724 30.704 23.332 23.94 23.332 23.94H18.392C18.392 23.94 17.328 27.588 12.16 27.588C7.98 27.588 4.94 24.776 4.94 20.748H23.864V26.372C23.864 27.892 23.788 29.944 23.788 29.944H28.5C28.5 29.944 28.652 28.424 28.652 27.056C28.652 27.056 31.008 30.704 37.316 30.704C42.712 30.704 46.74 27.664 48.032 22.952C48.032 23.18 47.956 23.484 47.956 23.712C47.956 28.272 51.756 30.78 56.924 30.78C63.916 30.78 66.196 26.904 66.196 26.904C66.196 28.424 66.348 29.944 66.348 29.944H70.832C70.832 29.944 70.68 28.044 70.68 26.828V16.568C70.68 15.2 70.452 13.984 70.072 12.996L79.04 29.944L74.784 38H80.104L94.772 9.12H89.756ZM5.016 17.632C5.016 13.756 8.588 11.476 12.084 11.476C16.112 11.476 18.848 13.908 18.848 17.632H5.016ZM36.1 27.512C31.236 27.512 28.652 23.712 28.652 19.532C28.652 15.656 31.008 11.628 36.1 11.628C40.66 11.628 43.548 14.972 43.548 19.532C43.548 24.396 40.204 27.512 36.1 27.512ZM65.816 21.432C65.816 23.256 64.676 27.74 58.14 27.74C54.568 27.74 53.048 25.916 53.048 23.864C53.048 20.064 58.216 20.064 65.816 20.064V21.432Z" fill="#1F304C"/>
</svg>
